X: 20331
T: John Brosnan's
R: polka
M: 2/4
K: Dmajor
|:G>A Bd|ef g2|ed Bd|ed BA|
G>A Bd|ef g2|ed BA|1 GD EF:|2 G2 G2||
|:gf ed|ef g2|ed Bd|ed Bd|
g>f ed|ef g2|ed BA|1 G2 G2:|2 GD EF||

